X:67
T:Miss Bailey’s March.2voices RH.067
R:March
S:Rev.R.Harrison’s MS,c1815,Cumbria
N:Both parts have had a leading A2 subtracted, to
N:allow the tune to play correctly. PJH.
O:England
A:Temple Sowerby,Cumbria
Z:vmp.Simon Wilson. Review PJH, 2008.
M:C|
L:1/8
Q:1/2=75
K:D
[V:1]|:d2d>d dAde|f>gf>g a2g>f|e2e>f efef|g2e>e e2f>e|
[V:2]|:F2F>F FDFA|d>ed>e f2e>d|c2c>d cdcd|e2c>c c2a>g|
%
[V:1] dAFA DAFA|f>gf>g a2g/f/e/d/|Bege gdec|d2d>d d2:|
[V:2] fdAd FdAd|d>ed>e f2e/d/c/B/|D/E/F/G/ A/G/F/E/ EdAG|F2F>F F2:|
%
[V:1]|:f>e|dAFA DAFA|dAFA DEFG|A>BA>B AGFG|D2e>e e2f>g|
[V:2]|:a>g|fdAd FdAd|fdAd DEDF|F>GF>G FEDE|E2c>c c2d>e|
%
[V:1] a>b a/b/a/g/ fdfa|g>f e/f/e/f/ gecA|F/A/B/c/ d/c/B/A/ Bgec|d2d>d d2:|
[V:2] f>g f/g/f/e/ dAdf|e>f e/f/e/d/ ecAF|D/E/F/G/ A/G/F/E/ FdAF|F2F>F F2:|

